X: 7
T: The Burning Of The Piper's Hut
R: reel
M: 4/4
L: 1/8
K: Bmin
|: F |Bcde f4 | f>ef<a f2 ed | c2 A2 e2 A2 | cdef e2 dc |
Bcde f4 | f>ef<a f2 ed | c2 A2 f2 ed |c2 BA B3 :|
|: F |Bcde fB ~B2 | aB ~B2 f2 ed | c2 A2 e2 A2 | cdef e2 dc |
Bcde fB ~B2 | aB ~B2 f2 ed | c2 A2 f2 ed | c2 BA B3 :|


Tune 660	Setting 13692

